X: 1
T: Blackwell Court
M: 4/4
L: 1/8
R: barndance
K: Dmaj
D3E B,2A,2|D>B, D>E F2 E>D|E3D E2 F>A|B>A B>d F2 E>F|
D3E B,2A,2|D>B, D>E F2 E>D|E2e2 d>B A>F|1E4E4:|2E4E2F>A||
|:B3A B3A|B>A B>d F2 E>D|E3D E2 F>A|B>A B>d A2 F>A|
B3A B3A|B>A B>d F2 E>D|E2.e2 d>B A>F|E4E4:|
